X:1
T:For Me (Long)
T:For Me (Long)
T:Isaac Hickman Meredith
T:John Long, 1911
T:Public Domain Courtesy of the Cyber Hymnal™
C:Isaac Hickman Meredith
Z:Public Domain
Z:Courtesy of the Cyber Hymnal™
%%score ( 1 2 ) ( 3 4 )
L:1/8
Q:1/4=103
M:4/4
K:Db
V:1 treble 
V:2 treble 
V:3 bass 
V:4 bass 
V:1
 [DF]2!<(! [DF][DF] [EA]2!<)! [EA]2 |!>(! ([DB]4 [CA]2)!>)! z2 | %2
w: 1.~Un- der an east- ern|sky, *|
w: 2.~Thorn crowned His bless- èd|head, *|
w: 3.~Pierc- èd His hands and|feet, *|
w: 4.~Thus wert Thou made all|mine; *|
w: 5.~In thought and word and|deed, *|
!<(! [DF]2 [DF][DF] [EA]2 [EA]2!<)! |!>(! ([DB]4 [CA]2)!>)! [CA]2 | [Dd]2 [Dd]2 [Ec]2 [EF]2 | %5
w: A- mid a rab- ble’s|cry * A|Man went forth to|
w: Blood stained His ev- ery|tread; * Cross|la- den, on He|
w: Three ho- urs o’er Him|beat * Fierce|rays of noon- tide|
w: Lord, make me whol- ly|Thine; * Grant|grace and strength di-|
w: Thy will to do, O|lead * My|soul, e’en though it|
!>(! B4 [FA]2!>)!!p!"^rall." D2 | z2 !fermata![CG]2 [DF]2 x2 | !fermata![DF]6 z2 |] %8
w: die, For me,|* for||
w: sped, For me,|* for||
w: heat, For me,|* for||
w: vine, To me,|* to||
w: bleed, To Thee,|* to||
V:2
 x8 | x8 | x8 | x8 | x8 | D2 E2 x4 | G4 D2 x2 | x8 |] %8
V:3
 [D,A,]2 [D,A,][D,A,] [C,A,]2 [C,A,]2 | ([B,,F,]4 [F,A,]2) z2 | %2
 [D,A,]2 [D,A,][D,A,] [C,A,]2 [C,A,]2 | ([B,,F,]4 [F,A,]2) [G,A,]2 | %4
 [F,A,]2 [F,A,]2 [F,=A,]2 [F,A,]2 | (B,2 C2 [D,D]2) z2 | (z2 [E,B,]2 !fermata![A,,A,]2) [D,A,]2 | %7
 !fermata![D,A,]6 z2 |] %8
V:4
 x8 | x8 | x8 | x8 | x8 | G,4 x4 | x8 | x8 |] %8

